X:451
T:La Margamora (CT 225)
C:Tradicional
S:Msica Tradicional Asturiana, (C) Tello & Tito. Asturies, 2001.
S:http://pagina.de/MusTradAst <telloytito@asturies.org>
N:Cancin de empleo indeterminado, transcrita en Riusecu, ayuntamiento de Sobrescobiu.
A:Asturies
O:Riusecu (Sobrescobiu)
Z:Cancioneru de Torner 225
M:3/8
L:1/8
Q:3/8=80
K:G
|G2B|ddd|cdB-|Bcc|AB2-|B3|
 G2B|ddd|cdB-|Bcc|ABG-|GAG|FG2-|G2z:|
W:Vila llorando y dixe-y
W:por quien sospiras.
W:
W:Ye mio amor un soldu
W:y toi llorando-y
W:la despeda.
W:
W:La despeda ye corta,
W:l'ausencia llarga.
W:
W:Ai amante del alma,
W:bien de mi vida,
W:prenda adorada.
W:
